X:1
T:Salve Barbara
T:Philippe Verdelot
T:Source : Liber Motettorum I---Paris---P.Attaignant---1534. Editor : André Vierendeels (16/09/17 
T:Salve Barbara
T:©
T:©
T:©
T:©
T:©
T:©
T:©
T:©
T:©
C:Philippe Verdelot
Z:©
%%score [ 1 2 3 4 ]
L:1/8
Q:1/4=120
M:2/2
K:F
V:1 treble nm="Soprano" snm="S"
V:2 treble nm="Alto" snm="A"
V:3 treble-8 nm="Tenor 1" snm="T 1"
V:4 treble-8 nm="Tenor 2" snm="T 2"
V:1
 z8 | z8 | F8 | G4 B4- | B2 A2 G4 | F2 A4 G2 | A2 c3 B/A/ B2 | c8 | z4 F4- | F4 G4 | B6 A2 | G8 | %12
w: ||Sal-|ve, Bar-|* ba- ra|di- gnis- *|* * * si- ma,|_|Sal-|* ve|Bar- ba-|ra|
 z2 c2 c4 | B4 A4 | z4 F4 | G4 B4- | B2 A2 G4 | F4 F4 | G4 A2 FG | AB c3 B BA/B/ | c8 | z4 c4 | %22
w: di- gnis-|si- ma,|sal-|ve Bar-|* ba- ra|di- gnis-||* * * * si- * *|ma|que|
 d4 f4 | e2 d4 c2 | d2 B2 A4 | z8 | z4 z2 c2 | B2 G2 B4 | A2 FG AB c2- | cB G3 A B2- | B2 AG A4 | %31
w: in ce-|lo ful- gen-|tis- si- ma||fu-|e- ris De-|o plen- * * * tis-|||
 B8 | A4 z2 c2- | c2 B2 A2 G2- | GF F4 E2 | F4 z2 c2- | c2 B2 A2 G2- | GF F4 E2 | F4 z4 | F8 | %40
w: si-|ma, da|_ sem- pi- ter-|na- * gau- di-|a, da|_ sem- pi- ter-|na- * gau- di-|a,|sal-|
 G4 A4- | A4 G4 | z8 | z8 | z8 | z4 c4- | c4 d4 | e4 c4 | f4 d2 e2- | edcB AG c2- | cB/A/ B2 c3 B | %51
w: ve vir-|* go,||||sal-|* ve|vir- goDe-|||* * * * o _|
 A4 G4 | z8 | z2 c4 d2 | e4 c4 | f6 e2 | d4 c4 | z8 | c6 c2 | c6 BA | B4 A4 | F4 G4 | A8 | z4 F4- | %64
w: ple- na||que tu-|li- sti|si- ne|pe- na,||ver- be-|ra _ _|_ mar-|ty- ri-|i,|sal-|
 F4 G4 | A8 | B4 c4- | c4 d4 | e4 f3 e | dc c4 B2 | c8 | z8 | z8 | z8 | z4 z2 c2- | c2 c2 B4 | %76
w: * ve|que|post il-|* la|scan- * *||dis||||et|_ est ho-|
 A2 F2 c4 | B4 A4 | z2 c4 c2 | B4 A2 F2 | c4 B4 | A8 | z4 c4 | f8 | e4 d4- | d2 c2 B4 | %86
w: nor ti- bi|gran- dis,|et est|ho- nor ti-|bi gran-|dis|in|ce-|li pa-|* la- *|
 A3 G/F/ GA B2- | BA A4 G2 | A8 |[M:6/4] A4 B2 c4 A2 | d3 c B2 A3 G/F/ G2 | A4 z2 A4 B2 | %92
w: |* * * ti-|o,|u- bi De- um|de- pre- ca- * * * *|re no- bis|
 c4 A2 d3 c B2 |[M:3/4] A3 G/F/ G2 |[M:2/2] A8 | z4 A4- | A4 c4 | B4 G4 | z2 G2 c4 | B4 G2 d2 | %100
w: cul- pas te las- sa-||re,|te|_ pre-|ca- mur,|te pre-|ca- mur, te|
 f4 e4 | d4 c4 | B2 A3 G G2- | G2 F2 G4 | c3 B A2 G2- | GF F4 E2 | F8- | F8- | F8 |] %109
w: pre- ca-||mur Bar- * *|* ba ra.|A- * * *||men.|_||
V:2
 C8 | D4 F4- | F2 E2 D4 | C4 D2 B,C | DE F4 E2 | F4 z4 | E4 F4 | A6 A2 | G4 z2 D2 | %9
w: Sal-|ve, Bar-|* ba- ra|di- gnis- si- *||ma,|sal- ve,|Bar- ba-|ra di-|
 B,2 C2 D2 B,2- | B,A,B,C D4 | C4 D4 | F6 E2 | D4 C4 | C4 D4 | E4 z2 D2- | D2 C2 B,4 | D6 C2 | %18
w: gni- tis- * si-|* * * * ma,|sal- ve|Bar- ba-|ra di-|gnis- si-|ma, di-|* gni- tis-||
 B,4 C4 | F3 E D4 | C8- | C8 | z8 | z8 | z4 F4 | G4 B4 | A2 G4 F2 | G2 E2 D4 | z2 D2 C2 A,2 | %29
w: |* * si-|ma,|_|||et|in ce-|lo ful- gen-|tis- si- ma|fu- e- ris|
 C4 B,2 D2- | D2 C4 F2- | F2 ED E2 E2 | F2 A4 G2 | F4 E4 | z8 | z2 A4 G2 | F4 E2 E2 | D4 C4 | %38
w: De- o plen-|* tis- *|||si- ma,||sem- pi-|ter- na gau-|di- a,|
 z4 C4- | C4 D4 | E4 C4 | F4 D2 E2- | EDCB, A,4 | G,4 z4 | z8 | z8 | F8 | G4 A4 | G2 B4 G2 | %49
w: sal-|* ve|vir- go|De- o ple-||na,|||sal-|ve vir-|go De- o|
 A3 G F2 E2 | D4 C4 | z8 | z2 F4 G2 | A4 F2 F2 | G4 A4- | A4 F4 | z2 B4 A2 | G2 F2 G4 | A4 z4 | %59
w: ple- * * *|* na||que tu-|li- sti si-|ne pe-|* na,|si- ne|pe- * *|na,|
 A6 A2 | G4 E4 | D2 F3 E ED/E/ | F4 z4 | C8 | D8 | E4 F4- | F4 G4 | A8 | B4 c3 B | A4 G4 | %70
w: ver- be-|ra mar-|ty- ri- * * * *|i,|sal-|ve|que post|_ il-|la|scan- * *|* dis|
 z2 E4 F2- | F2 G4 A2- | AGFE F2 G2- | GFED E2 F2- | FEFD E2 C2 | E2 F2 G4 | z2 A4 A2 | G4 F2 D2 | %78
w: que post|_ il- la-|* * * * * scan-|||* * dis,|et est|ho- nor ti-|
 A4 G4 | F4 z4 | A,4 B,4 | C2 D2 E2 F2 | G4 A4- | A4 A4 | A4 F2 B2- | B2 A2 G4 | F2 D2 E2 F2- | %87
w: bi gran-|dis|et est|ho- nor ti- bi|gran- dis|_ in|ce- li pa-|* * la-||
 FE F2 D4 | D4 z4 |[M:6/4] z2 F4 G2 A4 | F2 D4 C2 D2 E2 | F2 F4 G2 A4 | G2 D4 F2 D3 E | %93
w: * * * ti-|o,|u- bi De-|um de- pre- ca- *|re no- bis cul-|pas te las- sa- *|
[M:3/4] F3 E/D/ E2 |[M:2/2] E8 | F8 | z4 G4- | G4 B4 | A4 G4 | z2 G2 B4 | A4 G4- | G4 E4 | F6 E2 | %103
w: ||re,|te|_ pre-|ca- mur,|te pre-|ca- mur,|_ te|_ _|
 D4 E4 | C6 C2 | C8 | C3 B, C2 D2- | D2 C2 B,4 | A,8 |] %109
w: * pr-|ca- mur|Bar-|ba- * ra, A-||men|
V:3
 z8 | z8 | z8 | z8 | z8 | z4 c4- | c4 d4 | f6 e2 | d3 c d2 Bc | de f3 e ed/e/ | f4 F4 | G4 B4- | %12
w: |||||Sal-|* ve,|Bar- ba-|ra di- gnis- * *|* * * * si- * *|ma, sal-|ve Bar-|
 B2 A2 G4 | F6 A2- | AG c3 B BA | c2 c2 d4 | f4 e2 d2- | dcBc de f2- | f2 e2 f3 e | d2 c2 g4 | %20
w: * ba- ra|di- gnis-|* * * * si _|ma, sal- ve,|Bar- ba- ra|_ _ _ _ di- * gnis-||* * si-|
 e4 z2 e2 | f4 a4 | g2 f4 d2 | g4 e4 | d4 z2 f2 | e2 d2 g3 f | e3 d c4 | z2 g2 f2 d2 | f8 | %29
w: ma et|in ce-|lo ful- gen-|tis- si-|ma fu-|e- ris De- *|* * o,|fu- e- ris|De-|
 e4 d2 g2- | gfed cB c2 | d4 B4 | c2 f4 e2 | d4 c3 B | A2 F2 G4 | F2 f4 e2 | d4 c3 B | A2 B2 G4 | %38
w: o ple- ni-||* si-|ma, da sem-|pi- ter- na|gau- * di-|a,, da sem-|pi- ter- na|gau- * di-|
 F4 F3 G | AB c3 B BA | c4 z4 | z8 | c8 | d4 e4 | c4 f4 | d2 e3 dcB | AG c3 B BA/B/ | c4 F4 | z8 | %49
w: a, gau- *|* * * * di- *|a,||sal-|ve, vir-|go De-|||ple- na||
 z8 | z4 z2 c2- | c2 d2 e4 | c4 d4 | c3 B A2 F2 | c8- | c4 z4 | g3 f ed c2 | d2 f4 e2 | f4 f4- | %59
w: |que|_ tu- li-|sti si-|ne _ _ pe-|na,|_|que tu- li- * ste|si- ne pe-|na ver-|
 f2 f2 f3 e | d4 c4 | d4 B4 | cd c3 BAG | A4 z4 | B8 | c4 d4- | d4 e4 | f8 | g4 a3 g | f2 e2 d4 | %70
w: * be- ra _|_ mar-|ri- *||i,|sal-|ve que|_ post|il-|la scan- *||
 c8 | d4 e4 | c2 d3 cBA | B2 c3 BAG | FGAB cdef | g2 f4 e2 | f4 z4 | z4 z2 f2- | f2 f2 e4 | %79
w: dis,|sal- ve|que post _ _ _|_ il- * * *||la scan- *|dis|et|_ est ho-|
 d2 B2 f4 | e3 d/c/ d2 e2 | f3 e/d/ c2 f2- | f2 e2 f4- | f4 d4 | c4 d3 e | f4 d4- | d2 f2 e2 d2- | %87
w: nor ti- bi|gran- * * * *||* * dis|_ in|ce- li _|_ pa-|* la- * *|
 dcBA B4 | A8 |[M:6/4] z2 d4 e2 f4 | d2 g3 f e3 d d2- |"^-natural" dc/B/ c2 d2 z2 d4 | %92
w: * * * * ti-|o,|u- bi De-|um de- pre- ca- * *|* * * * re no-|
 e2 f4 d2 f3 e |[M:3/4] d3 d d2- |[M:2/2]"^-natural" dc/B/ c2 d2 c2 | d3 c de f2- | f2 ed e4 | d8 | %98
w: bis cul- pas te las-|sa- * *|||* * * re,|te|
 f4 e4 | d4 z2 d2- | d2 A2 c4 | B4 c4 | d4 c2 B2 | A4 c3 B | AG F4 G2 | A2 F2 G4 | F8- | F8- | %108
w: pre- ca-|mur, te|_ pre- ca-|mur Bar-|* * ba-|ra. A- *|||men.|_|
 F8 |] %109
w: |
V:4
 z8 | z8 | z8 | z8 | z8 | z8 | z8 | F8 | G4 B4- | B2 A2 G4 | z4 D4 | E2 C2 G4 | z4 C4 | D4 F4- | %14
w: |||||||Sal-|ve, Bar-|* ba- ra,|di-|gnis- si- ma,|sal-|ve, Bar-|
 F2 E2 D4 | z8 | F4 G4 | B6 A2 | G4 F4 | F4 G4 | A8- | A8 | z8 | z4 A4 | B4 d4 | c2 B4 G2 | c4 A4 | %27
w: * ba- ,||sal- ve,|Bar- ba-|ra di-|gnis- si-|ma,|_||et|in ce-|lo ful- gen-|tis- si-|
 G4 z2 G2 | F2 D2 F4 | CDEF G3 A | B2 c2 A2 F2 | B3 A G4 | F4 C4 | z8 | z2 c4 B2 | A2 F3 E C2 | %36
w: ma fu-|e- ris De-|o _ _ _ _ plen-|tis- si- * *||ma, _||da sem-|pi- ter- na gau-|
 D2 B,2 C4 | D2 B,2 C4 | c3 B A3 G | F2 E2 D4 | C4 F4- | F4 G4 | A4 F4 | B4 G2 A2- | AGFE D3 E | %45
w: |* di- a,|da per sem- pi-|ter- na gau|di- a,|_ sal-|ve vir-|go De- o|_ _ _ _ _ _|
 F2 G2 C2 F2- | F2 E2 D4 | C4 z4 | z8 | z4 z2 F2- | F2 G2 A4 | F4 c4- | c2 A2 B4 | A2 F3 E D2 | %54
w: |* * ple|na,||que|_ tu- li-|sti si-|* ne pe-||
 C4 F4- | F4 F4 | G4 A4 | B4 G4 | F4 z4 | F6 F2 | G4 A4 | B4 G4 | F8- | F8 | z8 | z8 | z8 | z8 | %68
w: na, ver-|* be-|ra mar-|ty- ri-|i,|ver- be-|ra mar-|ty- ri-|i,|_|||||
 z4 F4- | F4 G4 | A8 | B4 c4 | A2 B3 AGF | G2 A3 GFE | D4 C2 c2- | cB A2 G4 | F8 | z8 | z8 | %79
w: sal-|* ve|que|post il-|la scan- * * *||||dis|||
 z4 z2 A2- | A2 A2 G4 | F2 D2 A4 | G4 F4 | z2 D2 D4 | A4 B4- | B2 F2 G4 | D4 C2 B,2 | F4 G4 | D8 | %89
w: et|_ est ho-|nor ti- bi|gran- dis|in ce-|lo pa-|* la- ti-|o, pa- la-|ti- *|o,|
[M:6/4] D4 D2 C2 F4 | B3 A G2 A2 B4 | A4 z2 D4 D2 | C2 F4 B3 A G2 |[M:3/4] A2 B4 |[M:2/2] A8 | %95
w: u- bi De- um|de- * * pre- ca-|re no- bis|cul- pas te _ _|las- sa-||
 D8- | D4 z2 C2 | G4 G4 | D4 z2 C2 | G4 G4 | D4 z4 | G4 A4 | D3 E F2 G2 | D4 C2 c2- | cBAG F2 E2 | %105
w: re,|_ te|pre- ca-|mur, te|pre- ca-|mur,|Bar- *|ba- * * *|A- ra.- A-||
 F4 C4 | z2 F3 E DC | B,2 A,2 B,4 | F8 |] %109
w: * men,|a- * * *||men.|

